svg/100/sharp/shapes.svg

<svg xmlns="http://www.w3.org/2000/svg" width="48" height="48" viewBox="0 -960 960 960"><path d="M588-372ZM360-246h12q2.933 0 5.467.25Q380-245.5 382-246v80h412v-412h-80q.5-2 .25-4.533-.25-2.534-.25-5.467v-12h102v456H360v-102Zm12.191-114Q277-360 210.5-426.309q-66.5-66.308-66.5-161.5Q144-683 210.309-749.5q66.308-66.5 161.5-66.5Q467-816 533.5-749.691q66.5 66.308 66.5 161.5Q600-493 533.691-426.5q-66.308 66.5-161.5 66.5Zm-.537-22Q457-382 517.5-442.154q60.5-60.153 60.5-145.5Q578-673 517.846-733.5q-60.153-60.5-145.5-60.5Q287-794 226.5-733.846q-60.5 60.153-60.5 145.5Q166-503 226.154-442.5q60.153 60.5 145.5 60.5ZM372-588Z"/></svg>

<svg xmlns="http://www.w3.org/2000/svg" width="48" height="48" viewBox="0 -960 960 960"><path d="M588-372ZM360-246h12q2.93 0 5.47.25 2.53.25 4.53-.25v80h412v-412h-80q.5-2 .25-4.53-.25-2.54-.25-5.47v-12h102v456H360v-102Zm12.19-114Q277-360 210.5-426.31T144-587.81q0-95.19 66.31-161.69t161.5-66.5q95.19 0 161.69 66.31t66.5 161.5q0 95.19-66.31 161.69T372.19-360Zm-.54-22q85.35 0 145.85-60.15 60.5-60.16 60.5-145.5 0-85.35-60.15-145.85-60.16-60.5-145.5-60.5-85.35 0-145.85 60.15-60.5 60.16-60.5 145.5 0 85.35 60.15 145.85 60.16 60.5 145.5 60.5Zm.35-206Z"/></svg>
